64x64/apps/qemu-system-aarch64.svg

<svg xmlns="http://www.w3.org/2000/svg" width="64" height="64" version="1.1">
 <path style="opacity:0.2" d="M 32,5 A 28,28 0 0 0 4,33 28,28 0 0 0 32,61 28,28 0 0 0 44.884766,57.847656 l 0.757812,1.847656 A 2.10021,2.10021 0 0 0 47.585938,61 h 11.314453 a 2.10021,2.10021 0 0 0 1.949218,-2.878906 l -4.513671,-11.3125 A 28,28 0 0 0 60,33 28,28 0 0 0 32,5 Z"/>
 <circle style="fill:#4f4f4f" cx="32" cy="32" r="28"/>
 <path style="opacity:0.2" d="m 23.847656,9.0507192 c -0.02872,1.1012588 -1.947854,0.1472703 -2.03125,1.4062498 -2.128564,-0.9476634 0.162159,1.442018 -0.05078,1.664063 h -0.01172 l -0.160156,-0.01563 c -0.10274,-0.03669 -0.252068,-0.09846 -0.472656,-0.234375 -0.448642,0.357442 -0.765826,0.830767 -1.03125,1.355468 -1.774397,2.760349 -2.639231,5.064367 -3.222656,7.972657 -0.745002,3.713732 -0.926617,8.053209 -0.851563,11.714843 0.07993,1.032317 0.338064,2.007925 1.183594,2.660157 2.382252,1.956808 4.363031,4.430094 6.363281,6.785156 3.93779,5.33858 7.387631,9.892759 9.636719,14.679687 C 32.951615,55.430273 32.630451,52.872029 32.476562,50.894469 31.110914,43.925849 28.319892,40.241005 28,32.456969 c -0.07502,-1.925534 2.001269,-5.816965 4.324219,-7.859375 3.505286,-3.081954 6.039019,-2.305983 10.511719,-1.644531 0.02414,0.004 0.05789,0.01162 0.08203,0.01563 0.14844,0.02486 0.309701,0.05317 0.457031,0.08203 1.195016,0.1065 3.596292,0.570974 4.027344,-0.253906 C 45.753322,21.392711 43.38243,21.212102 41.375,20.660094 41.057222,20.602302 40.660425,20.53627 40.269531,20.499938 l -1.964843,-0.4375 -0.492188,-0.128906 v 0.01563 l -7.035156,-1.371094 c -0.11194,-0.10192 -0.235199,-0.204062 -0.347656,-0.28125 l 6.863281,0.851563 v -0.03516 c 0.241942,0.05391 0.483796,0.100486 0.726562,0.128907 v 0.01562 l 4.851563,0.894532 c 0.837054,0.312199 1.72909,0.549274 2.566406,0.601562 1.382114,0.201106 3.136432,2.264217 3.589844,2.363282 -0.222216,-2.170451 -2.388292,-3.144204 -4.1875,-3.78125 -2.102022,-1.022 -5.245427,-0.986255 -5.578125,-3.8125 -0.0885,-0.196919 -0.17368,-0.393019 -0.28125,-0.582032 l -0.820313,-1.085937 0.03125,-0.01563 C 37.07404,12.520984 35.503157,11.558231 33.832031,11.191344 32.173371,10.618816 30.308903,10.05176 28.554688,9.8241568 27.959378,11.576981 27.294791,8.4351645 25.863281,9.3671255 24.608499,9.5157255 24.781884,9.84571 23.847656,9.0507192 Z m 8.669922,3.9511718 c 0.442927,-0.01463 0.950194,0.08563 1.458984,0.304688 1.356764,0.584136 2.238935,1.816581 1.978516,2.755859 -0.260422,0.939276 -1.574879,1.216946 -2.93164,0.632812 -1.356765,-0.584134 -2.238931,-1.799001 -1.978516,-2.738281 0.162767,-0.587045 0.734448,-0.930788 1.472656,-0.955078 z"/>
 <path style="fill:#ff7111" d="M 23.847656 8.0507812 C 23.818936 9.1520401 21.899802 8.1980515 21.816406 9.4570312 C 19.687842 8.5093676 21.978565 10.899049 21.765625 11.121094 L 21.753906 11.121094 L 21.59375 11.105469 C 21.49101 11.068779 21.341682 11.007009 21.121094 10.871094 C 20.672452 11.228536 20.355268 11.701861 20.089844 12.226562 C 18.315447 14.986911 17.450613 17.290929 16.867188 20.199219 C 16.122186 23.912951 15.940571 28.252428 16.015625 31.914062 C 16.095555 32.946379 16.353689 33.921987 17.199219 34.574219 C 19.581471 36.531027 21.56225 39.004313 23.5625 41.359375 C 27.50029 46.697955 30.950131 51.252134 33.199219 56.039062 C 32.951615 54.430335 32.630451 51.872091 32.476562 49.894531 C 31.110914 42.925911 28.319892 39.241067 28 31.457031 C 27.92498 29.531497 30.001269 25.640066 32.324219 23.597656 C 35.829505 20.515702 38.363238 21.291673 42.835938 21.953125 C 42.860078 21.957125 42.893829 21.96475 42.917969 21.96875 C 43.066409 21.99361 43.22767 22.021921 43.375 22.050781 C 44.570016 22.157281 46.971292 22.621755 47.402344 21.796875 C 45.753322 20.392773 43.38243 20.212164 41.375 19.660156 C 41.057222 19.602364 40.660425 19.536332 40.269531 19.5 L 38.304688 19.0625 L 37.8125 18.933594 L 37.8125 18.949219 L 30.777344 17.578125 C 30.665404 17.476205 30.542145 17.374063 30.429688 17.296875 L 37.292969 18.148438 L 37.292969 18.113281 C 37.534911 18.167191 37.776765 18.213767 38.019531 18.242188 L 38.019531 18.257812 L 42.871094 19.152344 C 43.708148 19.464543 44.600184 19.701618 45.4375 19.753906 C 46.819614 19.955012 48.573932 22.018123 49.027344 22.117188 C 48.805128 19.946737 46.639052 18.972984 44.839844 18.335938 C 42.737822 17.313938 39.594417 17.349683 39.261719 14.523438 C 39.173219 14.326519 39.088039 14.130419 38.980469 13.941406 L 38.160156 12.855469 L 38.191406 12.839844 C 37.07404 11.521046 35.503157 10.558293 33.832031 10.191406 C 32.173371 9.6188782 30.308903 9.051822 28.554688 8.8242188 C 27.959378 10.577043 27.294791 7.4352265 25.863281 8.3671875 C 24.608499 8.5157875 24.781884 8.845772 23.847656 8.0507812 z M 32.517578 12.001953 C 32.960505 11.987323 33.467772 12.087582 33.976562 12.306641 C 35.333326 12.890777 36.215497 14.123222 35.955078 15.0625 C 35.694656 16.001776 34.380199 16.279446 33.023438 15.695312 C 31.666673 15.111178 30.784507 13.896311 31.044922 12.957031 C 31.207689 12.369986 31.77937 12.026243 32.517578 12.001953 z"/>
 <path style="fill:#4f4f4f" d="m 40.700623,39 a 2.10021,2.10021 0 0 0 -1.94414,2.895702 l 6.885156,16.8 A 2.10021,2.10021 0 0 0 47.585781,60 h 11.314842 a 2.10021,2.10021 0 0 0 1.94961,-2.879298 l -6.704688,-16.8 A 2.10021,2.10021 0 0 0 52.195937,39 Z"/>
 <path style="fill:#f4f4f7;opacity:0.1" d="M 32 4 A 28 28 0 0 0 4 32 A 28 28 0 0 0 4.0214844 32.414062 A 28 28 0 0 1 32 5 A 28 28 0 0 1 59.982422 32.648438 A 28 28 0 0 0 60 32 A 28 28 0 0 0 32 4 z M 56.558594 46.367188 A 28 28 0 0 1 56.335938 46.808594 L 60.849609 58.121094 A 2.10021 2.10021 0 0 1 60.9375 58.400391 A 2.10021 2.10021 0 0 0 60.849609 57.121094 L 56.558594 46.367188 z"/>
 <path style="fill:#f4f4f7;opacity:0.2" d="M 23.847656 8.0507812 C 23.818936 9.1520402 21.899802 8.1980515 21.816406 9.4570312 C 20.448722 8.8481211 20.908635 9.6104394 21.353516 10.296875 C 21.482269 10.331281 21.612939 10.366445 21.816406 10.457031 C 21.899802 9.1980518 23.818936 10.15204 23.847656 9.0507812 C 24.781884 9.8457721 24.608499 9.5157875 25.863281 9.3671875 C 27.294791 8.4352265 27.959378 11.577043 28.554688 9.8242188 C 30.308903 10.051822 32.173371 10.618878 33.832031 11.191406 C 35.503157 11.558293 37.07404 12.521053 38.191406 13.839844 L 38.160156 13.855469 L 38.980469 14.941406 C 39.088039 15.130419 39.173219 15.326519 39.261719 15.523438 C 39.594417 18.349683 42.737822 18.313938 44.839844 19.335938 C 46.236753 19.830541 47.843814 20.536816 48.601562 21.839844 C 48.782511 21.985778 48.936809 22.097407 49.027344 22.117188 C 48.805128 19.946737 46.639052 18.972984 44.839844 18.335938 C 42.737822 17.313938 39.594417 17.349683 39.261719 14.523438 C 39.173219 14.326518 39.088039 14.130419 38.980469 13.941406 L 38.160156 12.855469 L 38.191406 12.839844 C 37.07404 11.521046 35.503157 10.558293 33.832031 10.191406 C 32.173371 9.6188784 30.308903 9.051822 28.554688 8.8242188 C 27.959378 10.577043 27.294791 7.4352265 25.863281 8.3671875 C 24.608499 8.5157875 24.781884 8.8457721 23.847656 8.0507812 z M 21.099609 10.892578 C 20.663546 11.247685 20.350535 11.711217 20.089844 12.226562 C 18.315447 14.986911 17.450613 17.290929 16.867188 20.199219 C 16.245205 23.299715 16.028762 26.815077 16.013672 30.029297 C 16.069127 27.098883 16.310388 23.974787 16.867188 21.199219 C 17.450613 18.290929 18.315447 15.986911 20.089844 13.226562 C 20.355268 12.701861 20.672452 12.228536 21.121094 11.871094 C 21.341682 12.007009 21.49101 12.068779 21.59375 12.105469 L 21.753906 12.121094 L 21.765625 12.121094 C 21.869169 12.013122 21.384071 11.392681 21.099609 10.892578 z M 31.105469 13.835938 C 31.088143 13.878318 31.057486 13.911717 31.044922 13.957031 C 30.784507 14.896311 31.666673 16.111179 33.023438 16.695312 C 34.380198 17.279446 35.694656 17.001776 35.955078 16.0625 C 36.031034 15.788544 36.000307 15.489928 35.898438 15.189453 C 35.554158 16.019622 34.313109 16.250562 33.023438 15.695312 C 32.066496 15.283316 31.355846 14.55747 31.105469 13.835938 z M 30.429688 18.296875 C 30.542145 18.374063 30.665404 18.476205 30.777344 18.578125 L 37.8125 19.949219 L 37.8125 19.933594 L 38.304688 20.0625 L 40.269531 20.5 C 40.660425 20.536332 41.057222 20.602364 41.375 20.660156 C 43.065407 21.124988 45.008605 21.334164 46.566406 22.224609 C 46.946384 22.166264 47.249168 22.04956 47.384766 21.820312 C 47.118336 21.606753 46.841799 21.396828 46.558594 21.220703 C 46.390717 21.125072 46.222968 21.0301 46.046875 20.949219 C 45.992915 20.924435 45.935491 20.906358 45.880859 20.882812 C 45.730986 20.825943 45.581206 20.774816 45.4375 20.753906 C 44.600184 20.701618 43.708148 20.464543 42.871094 20.152344 L 38.019531 19.257812 L 38.019531 19.242188 C 37.776765 19.213767 37.534911 19.167191 37.292969 19.113281 L 37.292969 19.148438 L 30.429688 18.296875 z M 28.035156 32.033203 C 28.022068 32.175524 27.995074 32.330585 28 32.457031 C 28.319892 40.241067 31.110914 43.925911 32.476562 50.894531 C 32.594589 52.411241 32.807506 54.162365 33.013672 55.671875 C 33.073071 55.794655 33.141395 55.915992 33.199219 56.039062 C 32.951615 54.430335 32.630451 51.872091 32.476562 49.894531 C 31.14569 43.103363 28.467087 39.420238 28.035156 32.033203 z"/>
</svg>

<svg xmlns="http://www.w3.org/2000/svg" width="64" height="64"><path style="opacity:.2" d="M32 5A28 28 0 0 0 4 33a28 28 0 0 0 28 28 28 28 0 0 0 12.885-3.152l.758 1.847A2.1 2.1 0 0 0 47.586 61H58.9a2.1 2.1 0 0 0 1.95-2.879L56.336 46.81A28 28 0 0 0 60 33 28 28 0 0 0 32 5z"/><circle style="fill:#4f4f4f" cx="32" cy="32" r="28"/><path style="opacity:.2" d="M23.848 9.05c-.03 1.102-1.948.148-2.032 1.407-2.128-.948.163 1.442-.05 1.664h-.012l-.16-.016a2.432 2.432 0 0 1-.473-.234c-.449.357-.766.83-1.031 1.355-1.775 2.76-2.64 5.065-3.223 7.973-.745 3.714-.926 8.053-.851 11.715.08 1.032.338 2.008 1.183 2.66 2.382 1.957 4.363 4.43 6.363 6.785 3.938 5.339 7.388 9.893 9.637 14.68a93.562 93.562 0 0 1-.722-6.145C31.11 43.926 28.32 40.241 28 32.457c-.075-1.926 2.001-5.817 4.324-7.86 3.506-3.081 6.04-2.305 10.512-1.644l.082.016c.148.025.31.053.457.082 1.195.106 3.596.57 4.027-.254-1.649-1.404-4.02-1.585-6.027-2.137a13.089 13.089 0 0 0-1.105-.16l-1.965-.438-.493-.128v.015l-7.035-1.37a3.41 3.41 0 0 0-.347-.282l6.863.851v-.035c.242.054.484.1.727.13v.015l4.851.894c.837.312 1.73.55 2.566.602 1.383.2 3.137 2.264 3.59 2.363-.222-2.17-2.388-3.144-4.187-3.781-2.102-1.022-5.246-.986-5.578-3.813-.089-.197-.174-.393-.282-.582l-.82-1.086.031-.015c-1.117-1.319-2.688-2.282-4.359-2.649-1.659-.572-3.523-1.14-5.277-1.367-.596 1.753-1.26-1.389-2.692-.457-1.255.149-1.081.479-2.015-.316zm8.67 3.952c.443-.015.95.086 1.459.305 1.356.584 2.238 1.816 1.978 2.755-.26.94-1.575 1.217-2.932.633-1.356-.584-2.238-1.799-1.978-2.738.163-.587.734-.93 1.473-.955z"/><path style="fill:#ff7111" d="M23.848 8.05c-.03 1.102-1.948.148-2.032 1.407-2.128-.948.163 1.442-.05 1.664h-.012l-.16-.016a2.432 2.432 0 0 1-.473-.234c-.449.358-.766.83-1.031 1.356-1.775 2.76-2.64 5.064-3.223 7.972-.745 3.714-.926 8.053-.851 11.715.08 1.032.338 2.008 1.183 2.66 2.382 1.957 4.363 4.43 6.363 6.785 3.938 5.339 7.388 9.893 9.637 14.68a93.562 93.562 0 0 1-.722-6.144C31.11 42.925 28.32 39.24 28 31.457c-.075-1.926 2.001-5.817 4.324-7.86 3.506-3.081 6.04-2.305 10.512-1.644l.082.016c.148.025.31.053.457.082 1.195.106 3.596.57 4.027-.254-1.649-1.404-4.02-1.585-6.027-2.137a13.089 13.089 0 0 0-1.105-.16l-1.965-.438-.492-.128v.015l-7.036-1.37a3.41 3.41 0 0 0-.347-.282l6.863.851v-.035c.242.054.484.1.727.13v.015l4.851.894c.837.313 1.73.55 2.566.602 1.383.201 3.137 2.264 3.59 2.363-.222-2.17-2.388-3.144-4.187-3.781-2.102-1.022-5.246-.986-5.578-3.813-.089-.196-.174-.393-.282-.582l-.82-1.086.031-.015c-1.117-1.319-2.688-2.282-4.359-2.649-1.659-.572-3.523-1.14-5.277-1.367-.596 1.753-1.26-1.389-2.692-.457-1.255.149-1.081.479-2.015-.316zm8.67 3.952c.443-.015.95.086 1.459.305 1.356.584 2.238 1.816 1.978 2.755-.26.94-1.575 1.217-2.932.633-1.356-.584-2.238-1.799-1.978-2.738.163-.587.734-.93 1.473-.955z"/><path style="fill:#4f4f4f" d="M40.7 39a2.1 2.1 0 0 0-1.944 2.896l6.886 16.8A2.1 2.1 0 0 0 47.586 60H58.9a2.1 2.1 0 0 0 1.95-2.88l-6.705-16.8a2.1 2.1 0 0 0-1.95-1.32z"/><path style="fill:#f4f4f7;opacity:.1" d="M32 4A28 28 0 0 0 4 32a28 28 0 0 0 .021.414A28 28 0 0 1 32 5a28 28 0 0 1 27.982 27.648A28 28 0 0 0 60 32 28 28 0 0 0 32 4zm24.559 42.367a28 28 0 0 1-.223.442L60.85 58.12a2.1 2.1 0 0 1 .087.28 2.1 2.1 0 0 0-.087-1.28l-4.291-10.754z"/><path style="fill:#f4f4f7;opacity:.2" d="M23.848 8.05c-.03 1.102-1.948.148-2.032 1.407-1.367-.609-.907.153-.462.84.128.034.259.07.462.16.084-1.259 2.003-.305 2.032-1.406.934.795.76.465 2.015.316 1.432-.932 2.096 2.21 2.692.457 1.754.228 3.618.795 5.277 1.367 1.671.367 3.242 1.33 4.36 2.649l-.032.015.82 1.086c.108.19.193.386.282.582.332 2.827 3.476 2.79 5.578 3.813 1.397.495 3.004 1.2 3.762 2.504.18.146.335.257.425.277-.222-2.17-2.388-3.144-4.187-3.781-2.102-1.022-5.246-.986-5.578-3.813-.089-.196-.174-.393-.282-.582l-.82-1.086.031-.015c-1.117-1.319-2.688-2.282-4.359-2.649-1.659-.572-3.523-1.14-5.277-1.367-.596 1.753-1.26-1.389-2.692-.457-1.255.149-1.081.479-2.015-.316zM21.1 10.894c-.436.355-.75.818-1.01 1.334-1.775 2.76-2.64 5.064-3.223 7.972-.622 3.1-.838 6.616-.853 9.83.055-2.93.296-6.054.853-8.83.584-2.908 1.448-5.212 3.223-7.972.265-.525.582-.998 1.031-1.356.22.136.37.198.473.234l.16.016h.012c.103-.108-.382-.728-.666-1.228zm10.005 2.943c-.017.042-.048.076-.06.121-.26.94.622 2.154 1.978 2.738 1.357.584 2.672.307 2.932-.633.076-.273.045-.572-.057-.873-.344.83-1.585 1.062-2.875.506-.957-.412-1.667-1.138-1.918-1.86zm-.675 4.46c.112.078.235.18.347.282l7.035 1.371v-.015l.493.128 1.965.438c.39.036.787.102 1.105.16 1.69.465 3.634.674 5.191 1.565.38-.059.683-.175.819-.405a8.659 8.659 0 0 0-.826-.6 6.63 6.63 0 0 0-.512-.27c-.054-.026-.112-.044-.166-.067a2.17 2.17 0 0 0-.444-.13c-.837-.051-1.729-.288-2.566-.6l-4.851-.895v-.016a7.195 7.195 0 0 1-.727-.129v.035l-6.863-.851zm-2.395 13.737c-.013.143-.04.298-.035.424.32 7.784 3.11 11.469 4.477 18.438.118 1.516.33 3.267.537 4.777.06.123.127.244.185.367a93.562 93.562 0 0 1-.722-6.144c-1.331-6.792-4.01-10.475-4.442-17.862z"/></svg>
